pro/src/icons/stroke-accessibility-eye.svg

<svg width="48" height="48" viewBox="0 0 48 48" fill="none" xmlns="http://www.w3.org/2000/svg">
<path id="icon" fill-rule="evenodd" clip-rule="evenodd" d="M40.255 9.71546C40.6521 9.33245 40.6629 8.7007 40.2791 8.30441C39.8952 7.90812 39.2622 7.89735 38.8651 8.28036L33.5682 13.3889C30.7015 11.9597 27.4561 10.9512 24 10.9512C17.8659 10.9512 12.3957 14.128 8.52781 17.1957C6.58096 18.7398 5.00776 20.282 3.9207 21.4383C3.37661 22.0171 2.95282 22.5008 2.66339 22.8419C2.51864 23.0125 2.40738 23.1476 2.33139 23.2412C2.29338 23.288 2.26419 23.3245 2.24402 23.3499L2.22055 23.3795L2.21395 23.3879L2.21125 23.3914C1.93502 23.7456 1.92983 24.2416 2.19856 24.6016L2.20123 24.6051L2.20768 24.6137L2.23042 24.6437C2.24993 24.6692 2.27811 24.7059 2.31479 24.753C2.38813 24.847 2.49547 24.9826 2.63536 25.1536C2.91506 25.4957 3.32529 25.9805 3.85435 26.5603C4.91138 27.7188 6.44865 29.2633 8.37276 30.8098C9.59551 31.7925 10.9859 32.7851 12.5183 33.6809L7.74499 38.2845C7.34787 38.6675 7.33707 39.2993 7.72089 39.6956C8.1047 40.0919 8.73777 40.1026 9.13489 39.7196L14.3662 34.6743C17.2211 36.0759 20.4773 37.0583 24 37.0583C30.1342 37.0583 35.6044 33.8815 39.4722 30.8138C41.4191 29.2697 42.9923 27.7275 44.0793 26.5712C44.6234 25.9924 45.0472 25.5087 45.3366 25.1676C45.4814 24.997 45.5927 24.8619 45.6686 24.7683L45.7039 24.7247L45.7313 24.6907L45.756 24.6597L45.7795 24.63L45.7861 24.6216L45.7881 24.619L45.7888 24.6182C46.0698 24.2578 46.0698 23.7518 45.7888 23.3914L45.7861 23.3879L45.7795 23.3795L45.756 23.3499L45.7077 23.2895L45.6686 23.2412C45.5927 23.1476 45.4814 23.0125 45.3366 22.8419C45.0472 22.5008 44.6234 22.0171 44.0793 21.4383C42.9923 20.282 41.4191 18.7398 39.4722 17.1957C38.2643 16.2377 36.9002 15.269 35.4083 14.3898L40.255 9.71546ZM32.0359 14.8668C31.3157 14.5323 30.5755 14.2303 29.8182 13.97C29.7824 14.0207 29.7413 14.0688 29.695 14.1135L26.8971 16.8119C27.6188 17.0825 28.2898 17.4506 28.8929 17.898L32.0359 14.8668ZM18.3759 30.8105C19.9185 32.0013 21.8744 32.7184 24 32.7184C28.9398 32.7184 33 28.8507 33 24.0049C33 23.4538 32.5523 23.007 32 23.007C31.4477 23.007 31 23.4538 31 24.0049C31 27.6849 27.9001 30.7226 24 30.7226C22.4378 30.7226 20.9983 30.23 19.8343 29.4054L22.6334 26.7085C23.696 27.2986 25.0673 27.2226 26.06 26.416C27.192 25.4962 27.4501 23.9479 26.7349 22.7549L33.9127 15.8322C35.4832 16.7182 36.9335 17.7316 38.2278 18.7582C40.081 20.2279 41.5828 21.6997 42.6207 22.8038C43.0738 23.2858 43.4374 23.6965 43.702 24.0048C43.4374 24.313 43.0738 24.7237 42.6207 25.2057C41.5828 26.3098 40.081 27.7816 38.2278 29.2514C34.4957 32.2115 29.4659 35.0625 24 35.0625C21.102 35.0625 18.3711 34.3165 15.9031 33.193L18.3759 30.8105ZM17.6692 28.7172C17.2049 28.1346 16.8233 27.4876 16.5427 26.7931L12.1037 31.0699C12.7163 31.476 13.3544 31.8679 14.0159 32.237L17.6692 28.7172ZM45 24.0048L45.7888 24.6182C45.789 24.6178 45.7892 24.6176 45 24.0048ZM45 24.0048C45.7892 23.392 45.789 23.3917 45.7888 23.3914L45 24.0048ZM2.19856 24.6016L3 24.0048C2.19809 24.6009 2.19831 24.6012 2.19856 24.6016ZM2.21125 23.3914C2.211 23.3917 2.21078 23.392 3.00002 24.0048L2.21125 23.3914ZM5.33318 25.2166C5.1381 25.0028 4.96045 24.8031 4.80093 24.6202L6.69495 22.7935L13.6544 16.0814C15.7905 14.8276 18.1617 13.7964 20.6735 13.2884L13.305 20.3949L6.76457 26.7029C6.21736 26.1639 5.73817 25.6605 5.33318 25.2166ZM23.8567 12.9477C23.8128 13.0202 23.7589 13.0883 23.695 13.1499L13.695 22.7945L8.22523 28.0697C8.66468 28.4602 9.13265 28.8579 9.62727 29.2554C9.89586 29.4713 10.1717 29.6866 10.4545 29.9004C10.4848 29.8608 10.5184 29.823 10.5554 29.7874L16.0181 24.5243C16.0061 24.3526 16 24.1794 16 24.0049C16 19.742 19.58 16.2893 24 16.2893C24.1825 16.2893 24.3635 16.2952 24.5428 16.3069L27.6106 13.3482C26.4356 13.0911 25.2288 12.947 24 12.947C23.9522 12.947 23.9044 12.9472 23.8567 12.9477Z" fill="currentColor"/>
</svg>

<svg xmlns="http://www.w3.org/2000/svg" width="48" height="48" fill="none"><path id="icon" fill="currentColor" fill-rule="evenodd" d="M40.255 9.715a.996.996 0 0 0 .024-1.41 1 1 0 0 0-1.414-.025l-5.297 5.109c-2.866-1.43-6.112-2.438-9.568-2.438-6.134 0-11.604 3.177-15.472 6.245a43.6 43.6 0 0 0-4.607 4.242 37 37 0 0 0-1.59 1.803l-.087.109-.023.03-.007.008-.003.003a1 1 0 0 0-.012 1.21l.002.004.007.009.022.03a16 16 0 0 0 .405.51c.28.342.69.826 1.22 1.406a41 41 0 0 0 4.518 4.25 34 34 0 0 0 4.145 2.87l-4.773 4.605a.996.996 0 0 0-.024 1.41 1 1 0 0 0 1.414.025l5.231-5.046c2.855 1.402 6.111 2.384 9.634 2.384 6.134 0 11.604-3.176 15.472-6.244a43.5 43.5 0 0 0 4.607-4.243 37 37 0 0 0 1.59-1.803l.035-.043.027-.034.025-.031.023-.03.007-.008.002-.003a1 1 0 0 0 0-1.228l-.002-.003-.007-.009-.023-.03-.048-.06-.04-.048a37.318 37.318 0 0 0-1.59-1.803 43.5 43.5 0 0 0-4.606-4.242 36 36 0 0 0-4.064-2.806zm-8.22 5.152c-.72-.335-1.46-.637-2.217-.897q-.054.076-.123.143l-2.798 2.699c.722.27 1.393.639 1.996 1.086zM18.376 30.81A9.2 9.2 0 0 0 24 32.718c4.94 0 9-3.867 9-8.713a.999.999 0 0 0-2 0c0 3.68-3.1 6.718-7 6.718a7.2 7.2 0 0 1-4.166-1.318l2.8-2.697a3.08 3.08 0 0 0 3.426-.292c1.132-.92 1.39-2.468.675-3.661l7.178-6.923c1.57.886 3.02 1.9 4.315 2.926a41.5 41.5 0 0 1 4.393 4.046c.453.482.816.893 1.081 1.2-.265.309-.628.72-1.081 1.202a41.5 41.5 0 0 1-4.393 4.045c-3.732 2.96-8.762 5.811-14.228 5.811-2.898 0-5.629-.745-8.097-1.869zm-.706-2.094a7.8 7.8 0 0 1-1.126-1.924l-4.44 4.277c.613.406 1.251.798 1.913 1.167zM45 24.005l.789.613zm0 0c.79-.613.789-.613.789-.614zm-42.801.597L3 24.005c-.802.596-.802.596-.801.597m.012-1.21.789.613zm3.122 1.825a36 36 0 0 1-.532-.597l1.894-1.826 6.96-6.713c2.136-1.253 4.507-2.285 7.019-2.793l-7.369 7.107-6.54 6.308a39 39 0 0 1-1.432-1.486m18.524-12.27a1 1 0 0 1-.162.203l-10 9.644-5.47 5.276a37 37 0 0 0 2.23 1.83 1 1 0 0 1 .1-.113l5.463-5.263a8 8 0 0 1-.018-.52c0-4.262 3.58-7.715 8-7.715q.274 0 .543.018l3.068-2.959a17 17 0 0 0-3.754-.4" clip-rule="evenodd"/></svg>
